src/img/icon-trash-can.svg

<svg width="20" height="31" viewBox="0 0 20 31" fill="none" xmlns="http://www.w3.org/2000/svg">
<path d="M16.9807 11.8223H3.92383V30.0001H17.1945V12.0204C17.1152 11.9643 17.0433 11.8977 16.9807 11.8223V11.8223Z" stroke="white" stroke-width="0.5" stroke-miterlimit="10"/>
<path d="M16.6536 11.4939H3.92383V10.5942H16.6536" stroke="white" stroke-width="0.5" stroke-miterlimit="10"/>
<path d="M8.14149 1.08353L16.7101 5.13109C17.3173 5.41788 17.7897 5.94293 18.0233 6.59072C18.257 7.23851 18.2328 7.95598 17.9561 8.5853L17.5972 9.40156L4.4455 3.1891L4.8023 2.37759C5.07899 1.74827 5.58554 1.25866 6.21051 1.01646C6.83548 0.774262 7.52767 0.799316 8.13482 1.08611L8.14149 1.08353Z" stroke="white" stroke-width="0.5" stroke-miterlimit="10"/>
<path d="M17.4159 9.82709L17.7354 9.10217L4.57793 2.88818L3.92383 4.37975L16.7215 10.4242" stroke="white" stroke-width="0.5" stroke-miterlimit="10"/>
<path d="M17.7492 12.1039C18.355 12.1039 18.8461 11.5949 18.8461 10.967C18.8461 10.3391 18.355 9.83008 17.7492 9.83008C17.1434 9.83008 16.6523 10.3391 16.6523 10.967C16.6523 11.5949 17.1434 12.1039 17.7492 12.1039Z" stroke="white" stroke-width="0.5" stroke-miterlimit="10"/>
<path d="M2.04656 27.3791H3.92332V28.9437H1.46793C1.34426 28.9437 1.22562 28.8929 1.13794 28.8025C1.05026 28.7121 1.00066 28.5894 1 28.4612C1 28.1735 1.11026 27.8976 1.30653 27.6942C1.5028 27.4908 1.76899 27.3765 2.04656 27.3765V27.3791Z" stroke="white" stroke-width="0.5" stroke-miterlimit="10"/>
</svg>

<svg width="20" height="31" fill="none" xmlns="http://www.w3.org/2000/svg"><path d="M16.98 11.822H3.925V30h13.27V12.02a1.115 1.115 0 0 1-.213-.198v0zm-.326-.328H3.924v-.9h12.73m-8.513-9.51l8.57 4.047a2.573 2.573 0 0 1 1.312 1.46 2.69 2.69 0 0 1-.067 1.994l-.359.817L4.445 3.189l.357-.811a2.554 2.554 0 0 1 1.409-1.362 2.434 2.434 0 0 1 1.924.07l.006-.002z" stroke="#fff" stroke-width=".5" stroke-miterlimit="10"/><path d="M17.416 9.827l.32-.725L4.577 2.888 3.924 4.38l12.797 6.044" stroke="#fff" stroke-width=".5" stroke-miterlimit="10"/><path d="M17.75 12.104c.605 0 1.096-.51 1.096-1.137 0-.628-.491-1.137-1.097-1.137s-1.097.51-1.097 1.137c0 .628.491 1.137 1.097 1.137zM2.047 27.38h1.876v1.564H1.468a.46.46 0 0 1-.33-.142.494.494 0 0 1-.138-.34c0-.288.11-.564.307-.768.196-.203.462-.317.74-.317v.002z" stroke="#fff" stroke-width=".5" stroke-miterlimit="10"/></svg>
